src/images/logo-bnp-invert.svg

<svg fill="none" height="65" viewBox="0 0 180 65" width="180" xmlns="http://www.w3.org/2000/svg"><path clip-rule="evenodd" d="m55.0246 16.0755c1.7568-.8218 3.5212-1.6472 6.134-3.1 2.0936 2.9477 2.5984 9.7528 2.6801 15.1475 1.8114-3.4272 4.0089-16.2969 3.0809-18.63817 2.7833-1.73315 3.253-2.59016 3.8302-3.6435.1156-.21099.2355-.42986.3792-.66522-.6602.05375-1.2625.09861-1.8183.14001-2.2879.17041-3.7872.28207-5.2864.71327-4.6177-2.70089-14.1724-5.458185-21.9749-6.02939 2.4647.959061 12.3237 6.05054 13.5487 7.64428-5.2562.66993-15.2191 3.51892-20.26 6.05762 5.7907-1.22 13.868-1.8476 19.4434-2.1297-2.1901 3.0323-3.4076 4.5626-6.9043 8.1802 3.1836-1.8227 5.1606-2.7475 7.1474-3.6769zm-42.5375 38.3935c2.5167 2.2425 4.8182 3.5542 8.0253 4.6754-3.363-.0987-5.8798-.5077-8.8419-1.3398-.2079 1.9745-.0743 3.4907.49 5.3735-2.36829-2.2072-3.83823-4.1747-5.24136-7.059-2.65778-1.1565-4.56574-2.2284-6.91914-3.6105 1.67782-.7193 3.13291-1.1989 5.18193-1.7278-.65331-3.4201-.46771-6.4877.03712-10.7682.928 4.0478 1.73721 6.9532 3.57093 9.9925 2.23462-.4231 4.12032-.6911 6.73352-1.0437-1.418 1.9675-2.2791 3.5331-3.0364 5.5076zm13.8754-33.5742c.3044-1.0578 1.4477-3.3426 2.4573-4.5696-1.4922.2186-5.7387 1.9957-8.5524 4.1042-.0003 0-.0037-.0003-.0101-.0009-.1527-.0135-2.0173-.1787-5.0233-.0908-3.1404.127-7.23096.8604-8.82712 1.4809 3.0661.134 7.25322.8956 8.85682 2.4118 0 0-4.6474 3.9914-9.22801 12.7216.00048 0 .03628-.0316.10381-.0912.96902-.8553 8.4703-7.4769 11.871-9.2173 0 .0071 1.8932 6.0012 3.2072 8.9912 0-.007 1.1507-6.9532 3.0884-10.9516 0 0 .5419-.3033 3.2145-.5571 2.6801-.2186 6.4441-.3667 13.6676.8392 0 0-6.6222-3.9914-14.8257-5.0704zm6.8449 37.897c1.6184-1.7136 2.8508-3.1945 4.3133-5.0492.052 1.1566.1411 2.299.2599 3.4484 2.6281-1.1847 4.6103-2.3341 6.8968-3.8503-2.1381 2.0592-4.0237 3.7798-6.6221 5.6909.1951.9798.3641 1.5557.5806 2.2935.0141.0481.0284.0968.043.1464-.9874.1622-2.3386.2469-3.7566.2116-2.7468 1.5232-6.4588 2.6656-9.2651 3.3074 1.6704-1.0085 3.1404-2.0733 4.8553-3.5683-1.7075-.3244-3.3185-.8251-4.9666-1.6361 2.6949-.0141 4.8924-.282 7.6615-.9943zm1.1276-16.779c0-1.0175-.074-3.7881-.1851-4.9019v-.1169l7.2636.0069c2.5101.0413 5.2053.7013 5.2053 2.4338 0 1.0656-1.2217 1.9868-3.0062 2.3375 2.436.5431 3.7318 1.5331 3.7318 2.8668 0 2.1244-3.4356 2.8875-6.6491 2.8875h-6.5824l.0222-.11c.1851-1.3475.1999-4.4687.1999-5.4037zm8.6705-2.2963c0-1.1068-1.0218-1.5331-3.7688-1.54-.4369-.0068-.8663.0207-1.2958.0619-.0666 1.3956-.1111 3.0319-.1111 3.7606 0 .6188.0074 2.7157.1037 4.2557.4739.0275 1.2069.0275 1.666.0275 2.71 0 4.0872-.5982 4.0872-1.7738 0-.3437-.1555-.6669-.4665-.9487-.6738-.6119-1.9844-.9694-3.5023-.9282h-.77l.7552-1.4781h.0667c1.2957.0413 2.3471-.1925 2.8728-.66.2444-.2131.3629-.4744.3629-.7769zm16.3117-2.7156h3.1912l.1185.0069-.0148.1031c-.1037 1.1-.1851 3.8775-.1851 4.9019 0 .9281.0148 4.0494.2147 5.4037l.0148.1032h-2.6582l-.0296-.0344c-.2961-.3713-5.9678-6.5313-6.0271-6.5931-.5183-.5707-.6738-.8525-.7848-1.1482v.0069c0 2.4956 0 5.0875.1925 7.6656l.0074.0963h-3.3171l.0148-.1031c.1925-1.3475.2073-4.4757.2073-5.4038 0-1.0175-.0741-3.795-.1851-4.9019l-.0074-.1031h3.7243l.0371.0344c1.155 1.0794 4.4722 4.8812 4.5018 4.9225.9551 1.045 1.1402 1.265 1.355 1.6637-.1131-1.1672-.1664-2.3734-.2191-3.5635-.0059-.1347-.0118-.2691-.0179-.4033zm7.2266 5.0119c0-1.0244-.0815-3.795-.1851-4.9088l-.0223-.0962h6.19c2.9618.055 6.501.6187 6.501 3.0525 0 2.1312-2.5174 3.1694-7.7153 3.1694l-.5479-.0207s-.5627-.0206-.7256-.0275c.0148 1.4232.0592 3.2725.1999 4.235l.0148.11h-3.9391l.0148-.11c.2-1.3475.2148-4.4756.2148-5.4037zm8.4113-2.915c-.622-.5775-1.9252-.8594-3.7688-.8319-.3703.0069-.7331.0344-1.0959.0688-.037.7425-.0444 1.5056-.0444 2.1793 0 .5294.0074.9832.0222 1.3338.1185.0137.311.0344.311.0344l.7774.0137c1.9252 0 4.2205-.3162 4.2205-1.8425 0-.3781-.1481-.7012-.422-.9556zm11.8024 2.915c0-1.0244-.0814-3.795-.1925-4.9088v-.0962h6.1826c2.9617.055 6.501.6187 6.501 3.0525 0 2.1312-2.5249 3.1694-7.7153 3.1694l-.5553-.0207-.7182-.0275c.0148 1.4232.0666 3.2725.1999 4.235l.0148.11h-3.9391l.0148-.11c.1925-1.3475.2073-4.4756.2073-5.4037zm8.3965-2.915c-.6145-.5775-1.9177-.8594-3.7614-.8319-.422.0138-.8515.0413-1.1032.0688-.0296.7425-.0444 1.5056-.0444 2.1793 0 .5225.0074.9832.0222 1.3338.1184.0137.3109.0344.3109.0344l.7775.0137c1.9325 0 4.2279-.3162 4.2279-1.8425 0-.3781-.1481-.7012-.4295-.9556zm9.307-2.09h.067l2.651.0069 6.308 10.5187h-3.917l-.022-.0619c-.2-.4262-.644-1.2787-1.259-2.4131-.096 0-.503-.0069-.503-.0069l-2.303-.0206-2.799.0344c-.444.8731-.822 1.6912-1.118 2.4062l-.022.0619h-3.3838l.0888-.1512c.733-1.1688 5.45-8.8207 6.183-10.3125zm3.058 6.655c-.918-1.6569-1.725-3.0663-2.036-3.5613-.718 1.1757-1.407 2.3582-2.073 3.5613.281.0069 2.073.0275 2.073.0275l1.733-.0206zm7.708-1.6569c0-1.0175-.089-3.795-.192-4.9019l-.008-.11 6.183.0069c2.969.0481 6.508.6119 6.508 3.0456 0 1.3819-1.059 2.2894-3.198 2.7707.029.0343.074.0825.074.0825.317.3469.751.8195 1.217 1.328 1.263 1.376 2.767 3.0152 2.87 3.1407l.126.1581h-4.221l-.037-.0412c-.881-1.265-2.984-3.905-4.361-5.4244l-.178-.1925.267.0344c.274.0344.555.0481.837.0344 1.429-.055 2.969-.6669 2.969-1.8838 0-.3712-.141-.6944-.43-.9487-.622-.5707-1.925-.8525-3.761-.825-.363.0137-.718.0343-1.074.0618-.066 1.3063-.111 2.9425-.111 3.6713 0 .9281.015 4.0494.215 5.4037l.015.1032h-3.939l.014-.11c.193-1.3475.215-4.4757.215-5.4038zm15.401-5.0119h3.776.104l-.007.1032c-.104 1.1068-.186 3.8843-.186 4.9087 0 .9281.015 4.0563.208 5.4038l.022.11h-3.939l.015-.11c.192-1.3544.207-4.4825.207-5.4038 0-1.0244-.074-3.795-.185-4.9087zm7.649 5.0188c0-1.0244-.082-3.795-.193-4.9019v-.1169l7.256.0069c2.518.0413 5.206.7013 5.206 2.4338 0 1.0656-1.222 1.9868-3.006 2.3375 2.443.5431 3.746 1.5331 3.746 2.8668 0 2.1244-3.443 2.8875-6.656 2.8875h-6.575l.014-.11c.193-1.3475.208-4.4687.208-5.4037zm8.67-2.2963c0-1.1068-1.022-1.5331-3.776-1.54-.429-.0068-.859.0207-1.281.0619-.074 1.3956-.111 3.0181-.111 3.7606 0 .6188 0 2.7157.096 4.2557.467.0275 1.207.0275 1.666.0275 2.71 0 4.08-.5982 4.08-1.7738 0-.3437-.156-.6669-.467-.9487-.681-.6119-1.984-.9694-3.502-.9282h-.77l.755-1.4781h.067c1.303.0413 2.355-.1925 2.873-.66.244-.2131.37-.4744.37-.7769zm11.484-2.7225h2.651l.067-.0068 6.301 10.5256h-3.91l-.029-.0619c-.2-.4262-.645-1.2856-1.259-2.4131-.104 0-.504-.0069-.504-.0069l-2.302-.0275s-2.673.0344-2.792.0344c-.407.7906-.777 1.5881-1.118 2.4062l-.022.0688h-3.384l.089-.1444c.415-.6669 5.405-8.7312 6.183-10.3194zm3.066 6.6619c-.918-1.6569-1.718-3.0662-2.037-3.5612-.725 1.1687-1.414 2.3581-2.065 3.5543l2.065.0344 1.74-.0206zm11.654-.6737c-2.214-.66-4.717-1.4094-4.717-3.2588s2.399-3.0937 5.961-3.08c1.392 0 2.732.1925 3.532.3094l.807.1031v1.9113l.015.3918-.822-.2406c-.844-.2612-2.407-.7425-4.006-.7425-2.132 0-2.132.7013-2.132.935 0 .8074 1.709 1.3152 3.367 1.808l.024.007.001.0003c2.258.6668 4.819 1.4231 4.819 3.3203 0 2.035-2.48 3.2588-6.634 3.2588-1.592 0-3.162-.275-3.991-.4263l-.274-.0412-.452-.0756v-1.8907-.4056l.696.2406c1.644.5707 3.14.88 4.435.9282 1.326.0481 2.177-.1032 2.577-.4675.193-.1719.281-.385.281-.6532 0-.88-1.769-1.4162-3.487-1.9318z" fill="#fff" fill-rule="evenodd"/></svg>

<svg width="180" height="65" viewBox="0 0 180 65" fill="none" xmlns="http://www.w3.org/2000/svg">
<path fill-rule="evenodd" clip-rule="evenodd" d="M55.0246 16.0755C56.7814 15.2537 58.5458 14.4283 61.1586 12.9755C63.2522 15.9232 63.757 22.7283 63.8387 28.123C65.6501 24.6958 67.8476 11.8261 66.9196 9.48483C69.7029 7.75168 70.1726 6.89467 70.7498 5.84133C70.8654 5.63034 70.9853 5.41147 71.129 5.17611C70.4688 5.22986 69.8665 5.27472 69.3107 5.31612C67.0228 5.48653 65.5235 5.59819 64.0243 6.02939C59.4066 3.3285 49.8519 0.571205 42.0494 0C44.5141 0.959061 54.3731 6.05054 55.5981 7.64428C50.3419 8.31421 40.379 11.1632 35.3381 13.7019C41.1288 12.4819 49.2061 11.8543 54.7815 11.5722C52.5914 14.6045 51.3739 16.1348 47.8772 19.7524C51.0608 17.9297 53.0378 17.0049 55.0246 16.0755ZM12.4871 54.469C15.0038 56.7115 17.3053 58.0232 20.5124 59.1444C17.1494 59.0457 14.6326 58.6367 11.6705 57.8046C11.4626 59.7791 11.5962 61.2953 12.1605 63.1781C9.79221 60.9709 8.32227 59.0034 6.91914 56.1191C4.26136 54.9626 2.3534 53.8907 0 52.5086C1.67782 51.7893 3.13291 51.3097 5.18193 50.7808C4.52862 47.3607 4.71422 44.2931 5.21905 40.0126C6.14705 44.0604 6.95626 46.9658 8.78998 50.0051C11.0246 49.582 12.9103 49.314 15.5235 48.9614C14.1055 50.9289 13.2444 52.4945 12.4871 54.469ZM26.3625 20.8948C26.6669 19.837 27.8102 17.5522 28.8198 16.3252C27.3276 16.5438 23.0811 18.3209 20.2674 20.4294C20.2671 20.4294 20.2637 20.4291 20.2573 20.4285C20.1046 20.415 18.24 20.2498 15.234 20.3377C12.0936 20.4647 8.00304 21.1981 6.40688 21.8186C9.47298 21.9526 13.6601 22.7142 15.2637 24.2304C15.2637 24.2304 10.6163 28.2218 6.03569 36.952C6.03617 36.952 6.07197 36.9204 6.1395 36.8608C7.10852 36.0055 14.6098 29.3839 18.0105 27.6435C18.0105 27.6506 19.9037 33.6447 21.2177 36.6347C21.2177 36.6277 22.3684 29.6815 24.3061 25.6831C24.3061 25.6831 24.848 25.3798 27.5206 25.126C30.2007 24.9074 33.9647 24.7593 41.1882 25.9652C41.1882 25.9652 34.566 21.9738 26.3625 20.8948ZM33.2074 58.7918C34.8258 57.0782 36.0582 55.5973 37.5207 53.7426C37.5727 54.8992 37.6618 56.0416 37.7806 57.191C40.4087 56.0063 42.3909 54.8569 44.6774 53.3407C42.5393 55.3999 40.6537 57.1205 38.0553 59.0316C38.2504 60.0114 38.4194 60.5873 38.6359 61.3251C38.65 61.3732 38.6643 61.4219 38.6789 61.4715C37.6915 61.6337 36.3403 61.7184 34.9223 61.6831C32.1755 63.2063 28.4635 64.3487 25.6572 64.9905C27.3276 63.982 28.7976 62.9172 30.5125 61.4222C28.805 61.0978 27.194 60.5971 25.5459 59.7861C28.2408 59.772 30.4383 59.5041 33.2074 58.7918ZM34.335 42.0128C34.335 40.9953 34.261 38.2247 34.1499 37.1109V36.994L41.4135 37.0009C43.9236 37.0422 46.6188 37.7022 46.6188 39.4347C46.6188 40.5003 45.3971 41.4215 43.6126 41.7722C46.0486 42.3153 47.3444 43.3053 47.3444 44.639C47.3444 46.7634 43.9088 47.5265 40.6953 47.5265H34.1129L34.1351 47.4165C34.3202 46.069 34.335 42.9478 34.335 42.0128ZM43.0055 39.7165C43.0055 38.6097 41.9837 38.1834 39.2367 38.1765C38.7998 38.1697 38.3704 38.1972 37.9409 38.2384C37.8743 39.634 37.8298 41.2703 37.8298 41.999C37.8298 42.6178 37.8372 44.7147 37.9335 46.2547C38.4074 46.2822 39.1404 46.2822 39.5995 46.2822C42.3095 46.2822 43.6867 45.684 43.6867 44.5084C43.6867 44.1647 43.5312 43.8415 43.2202 43.5597C42.5464 42.9478 41.2358 42.5903 39.7179 42.6315H38.9479L39.7031 41.1534H39.7698C41.0655 41.1947 42.1169 40.9609 42.6426 40.4934C42.887 40.2803 43.0055 40.019 43.0055 39.7165ZM59.3172 37.0009H62.5084L62.6269 37.0078L62.6121 37.1109C62.5084 38.2109 62.427 40.9884 62.427 42.0128C62.427 42.9409 62.4418 46.0622 62.6417 47.4165L62.6565 47.5197H59.9983L59.9687 47.4853C59.6726 47.114 54.0009 40.954 53.9416 40.8922C53.4233 40.3215 53.2678 40.0397 53.1568 39.744V39.7509C53.1568 42.2465 53.1568 44.8384 53.3493 47.4165L53.3567 47.5128H50.0396L50.0544 47.4097C50.2469 46.0622 50.2617 42.934 50.2617 42.0059C50.2617 40.9884 50.1876 38.2109 50.0766 37.104L50.0692 37.0009H53.7935L53.8306 37.0353C54.9856 38.1147 58.3028 41.9165 58.3324 41.9578C59.2875 43.0028 59.4726 43.2228 59.6874 43.6215C59.5743 42.4543 59.521 41.2481 59.4683 40.058C59.4624 39.9233 59.4565 39.7889 59.4504 39.6547L59.3172 37.0009ZM66.5438 42.0128C66.5438 40.9884 66.4623 38.2178 66.3587 37.104L66.3364 37.0078H72.5264C75.4882 37.0628 79.0274 37.6265 79.0274 40.0603C79.0274 42.1915 76.51 43.2297 71.3121 43.2297L70.7642 43.209C70.7642 43.209 70.2015 43.1884 70.0386 43.1815C70.0534 44.6047 70.0978 46.454 70.2385 47.4165L70.2533 47.5265H66.3142L66.329 47.4165C66.529 46.069 66.5438 42.9409 66.5438 42.0128ZM74.9551 39.0978C74.3331 38.5203 73.0299 38.2384 71.1863 38.2659C70.816 38.2728 70.4532 38.3003 70.0904 38.3347C70.0534 39.0772 70.046 39.8403 70.046 40.514C70.046 41.0434 70.0534 41.4972 70.0682 41.8478C70.1867 41.8615 70.3792 41.8822 70.3792 41.8822L71.1566 41.8959C73.0818 41.8959 75.3771 41.5797 75.3771 40.0534C75.3771 39.6753 75.229 39.3522 74.9551 39.0978ZM86.7575 42.0128C86.7575 40.9884 86.6761 38.2178 86.565 37.104V37.0078H92.7476C95.7093 37.0628 99.2486 37.6265 99.2486 40.0603C99.2486 42.1915 96.7237 43.2297 91.5333 43.2297L90.978 43.209L90.2598 43.1815C90.2746 44.6047 90.3264 46.454 90.4597 47.4165L90.4745 47.5265H86.5354L86.5502 47.4165C86.7427 46.069 86.7575 42.9409 86.7575 42.0128ZM95.154 39.0978C94.5395 38.5203 93.2363 38.2384 91.3926 38.2659C90.9706 38.2797 90.5411 38.3072 90.2894 38.3347C90.2598 39.0772 90.245 39.8403 90.245 40.514C90.245 41.0365 90.2524 41.4972 90.2672 41.8478C90.3856 41.8615 90.5781 41.8822 90.5781 41.8822L91.3556 41.8959C93.2881 41.8959 95.5835 41.5797 95.5835 40.0534C95.5835 39.6753 95.4354 39.3522 95.154 39.0978ZM104.461 37.0078H104.528L107.179 37.0147L113.487 47.5334H109.57L109.548 47.4715C109.348 47.0453 108.904 46.1928 108.289 45.0584C108.193 45.0584 107.786 45.0515 107.786 45.0515L105.483 45.0309L102.684 45.0653C102.24 45.9384 101.862 46.7565 101.566 47.4715L101.544 47.5334H98.1602L98.249 47.3822C98.982 46.2134 103.699 38.5615 104.432 37.0697L104.461 37.0078ZM107.519 43.6628C106.601 42.0059 105.794 40.5965 105.483 40.1015C104.765 41.2772 104.076 42.4597 103.41 43.6628C103.691 43.6697 105.483 43.6903 105.483 43.6903L107.216 43.6697L107.519 43.6628ZM115.227 42.0059C115.227 40.9884 115.138 38.2109 115.035 37.104L115.027 36.994L121.21 37.0009C124.179 37.049 127.718 37.6128 127.718 40.0465C127.718 41.4284 126.659 42.3359 124.52 42.8172C124.549 42.8515 124.594 42.8997 124.594 42.8997C124.911 43.2466 125.345 43.7192 125.811 44.2277C127.074 45.6037 128.578 47.2429 128.681 47.3684L128.807 47.5265H124.586L124.549 47.4853C123.668 46.2203 121.565 43.5803 120.188 42.0609L120.01 41.8684L120.277 41.9028C120.551 41.9372 120.832 41.9509 121.114 41.9372C122.543 41.8822 124.083 41.2703 124.083 40.0534C124.083 39.6822 123.942 39.359 123.653 39.1047C123.031 38.534 121.728 38.2522 119.892 38.2797C119.529 38.2934 119.174 38.314 118.818 38.3415C118.752 39.6478 118.707 41.284 118.707 42.0128C118.707 42.9409 118.722 46.0622 118.922 47.4165L118.937 47.5197H114.998L115.012 47.4097C115.205 46.0622 115.227 42.934 115.227 42.0059ZM130.628 36.994H134.404H134.508L134.501 37.0972C134.397 38.204 134.315 40.9815 134.315 42.0059C134.315 42.934 134.33 46.0622 134.523 47.4097L134.545 47.5197H130.606L130.621 47.4097C130.813 46.0553 130.828 42.9272 130.828 42.0059C130.828 40.9815 130.754 38.2109 130.643 37.0972L130.628 36.994ZM138.277 42.0128C138.277 40.9884 138.195 38.2178 138.084 37.1109V36.994L145.34 37.0009C147.858 37.0422 150.546 37.7022 150.546 39.4347C150.546 40.5003 149.324 41.4215 147.54 41.7722C149.983 42.3153 151.286 43.3053 151.286 44.639C151.286 46.7634 147.843 47.5265 144.63 47.5265H138.055L138.069 47.4165C138.262 46.069 138.277 42.9478 138.277 42.0128ZM146.947 39.7165C146.947 38.6097 145.925 38.1834 143.171 38.1765C142.742 38.1697 142.312 38.1972 141.89 38.2384C141.816 39.634 141.779 41.2565 141.779 41.999C141.779 42.6178 141.779 44.7147 141.875 46.2547C142.342 46.2822 143.082 46.2822 143.541 46.2822C146.251 46.2822 147.621 45.684 147.621 44.5084C147.621 44.1647 147.465 43.8415 147.154 43.5597C146.473 42.9478 145.17 42.5903 143.652 42.6315H142.882L143.637 41.1534H143.704C145.007 41.1947 146.059 40.9609 146.577 40.4934C146.821 40.2803 146.947 40.019 146.947 39.7165ZM158.431 36.994H161.082L161.149 36.9872L167.45 47.5128H163.54L163.511 47.4509C163.311 47.0247 162.866 46.1653 162.252 45.0378C162.148 45.0378 161.748 45.0309 161.748 45.0309L159.446 45.0034C159.446 45.0034 156.773 45.0378 156.654 45.0378C156.247 45.8284 155.877 46.6259 155.536 47.444L155.514 47.5128H152.13L152.219 47.3684C152.634 46.7015 157.624 38.6372 158.402 37.049L158.431 36.994ZM161.497 43.6559C160.579 41.999 159.779 40.5897 159.46 40.0947C158.735 41.2634 158.046 42.4528 157.395 43.649L159.46 43.6834L161.2 43.6628L161.497 43.6559ZM173.151 42.9822C170.937 42.3222 168.434 41.5728 168.434 39.7234C168.434 37.874 170.833 36.6297 174.395 36.6434C175.787 36.6434 177.127 36.8359 177.927 36.9528L178.734 37.0559V38.9672L178.749 39.359L177.927 39.1184C177.083 38.8572 175.52 38.3759 173.921 38.3759C171.789 38.3759 171.789 39.0772 171.789 39.3109C171.789 40.1183 173.498 40.6261 175.156 41.1189L175.18 41.1259L175.181 41.1262C177.439 41.793 180 42.5493 180 44.4465C180 46.4815 177.52 47.7053 173.366 47.7053C171.774 47.7053 170.204 47.4303 169.375 47.279L169.101 47.2378L168.649 47.1622V45.2715V44.8659L169.345 45.1065C170.989 45.6772 172.485 45.9865 173.78 46.0347C175.106 46.0828 175.957 45.9315 176.357 45.5672C176.55 45.3953 176.638 45.1822 176.638 44.914C176.638 44.034 174.869 43.4978 173.151 42.9822Z" fill="white"/>
</svg>
